svg/24/triangle.svg

<svg width="24" height="24" viewBox="0 0 24 24" fill="currentColor" xmlns="http://www.w3.org/2000/svg"><path fill-rule="evenodd" clip-rule="evenodd" d="M20.5159 18.75L12.433 4.75C12.2405 4.41667 11.7594 4.41667 11.5669 4.75L3.48403 18.75C3.29158 19.0833 3.53215 19.5 3.91705 19.5H20.0829C20.4678 19.5 20.7083 19.0833 20.5159 18.75ZM13.732 4C12.9622 2.66667 11.0377 2.66667 10.2679 4L2.185 18C1.41519 19.3333 2.37745 21 3.91705 21H20.0829C21.6225 21 22.5847 19.3333 21.8149 18L13.732 4Z"/></svg>

<svg xmlns="http://www.w3.org/2000/svg" width="24" height="24" fill="currentColor" viewBox="0 0 24 24">
  <path fill-rule="evenodd" d="m20.516 18.75-8.083-14a.5.5 0 0 0-.866 0l-8.083 14a.5.5 0 0 0 .433.75h16.166a.5.5 0 0 0 .433-.75ZM13.732 4c-.77-1.333-2.694-1.333-3.464 0L2.185 18c-.77 1.333.192 3 1.732 3h16.166c1.54 0 2.502-1.667 1.732-3L13.732 4Z" clip-rule="evenodd"/>
</svg>
